craft2/public/assets/svgicons/branches/winepack-01.svg

<svg xmlns="http://www.w3.org/2000/svg" width="46.512" height="45.984" viewBox="0 0 46.512 45.984"><g stroke="#3B3735" stroke-width="2" stroke-linecap="round" stroke-linejoin="round" stroke-miterlimit="10" fill="none"><path d="M10.512 11.402v-7.402h-4v7.58c-1 1.648-4 5.359-4 8.035v4.385h12v-4.385c0-2.62-3-5.963-4-8.213z"/><path d="M11.512 2.531c0 .811-.657 1.469-1.469 1.469h-3.062c-.811 0-1.469-.658-1.469-1.469v-.062c0-.811.658-1.469 1.469-1.469h3.062c.811 0 1.469.658 1.469 1.469v.062z"/><path d="M25.512 11.402v-7.402h-4v7.58c-1 1.648-4 5.359-4 8.035v4.385h12v-4.385c0-2.62-3-5.963-4-8.213z"/><path d="M26.512 2.531c0 .811-.657 1.469-1.469 1.469h-3.062c-.811 0-1.469-.658-1.469-1.469v-.062c0-.811.658-1.469 1.469-1.469h3.062c.811 0 1.469.658 1.469 1.469v.062z"/><path d="M40.512 11.402v-7.402h-4v7.58c-1 1.648-4 5.359-4 8.035v4.385h12v-4.385c0-2.62-3-5.963-4-8.213z"/><path d="M41.512 2.531c0 .811-.657 1.469-1.469 1.469h-3.062c-.811 0-1.469-.658-1.469-1.469v-.062c0-.811.658-1.469 1.469-1.469h3.062c.811 0 1.469.658 1.469 1.469v.062z"/><path d="M1 24.318h44.422v10.27h-44.422z"/><path d="M1 34.588h44.422v10.396h-44.422z"/><path d="M1.512 29h3"/><path d="M1.512 39h3"/><path d="M45.512 29h-3"/><path d="M45.512 39h-3"/></g></svg>

<?xml version="1.0" encoding="utf-8"?>
<!-- Generator: Adobe Illustrator 17.0.0, SVG Export Plug-In . SVG Version: 6.00 Build 0)  -->
<!DOCTYPE svg PUBLIC "-//W3C//DTD SVG 1.1//EN" "http://www.w3.org/Graphics/SVG/1.1/DTD/svg11.dtd">
<svg version="1.1" id="Layer_1" xmlns="http://www.w3.org/2000/svg" xmlns:xlink="http://www.w3.org/1999/xlink" x="0px" y="0px"
	 width="46.512px" height="45.984px" viewBox="0 0 46.512 45.984" enable-background="new 0 0 46.512 45.984" xml:space="preserve">
<g>
	<g>
		<path fill="none" stroke="#3B3735" stroke-width="2" stroke-linecap="round" stroke-linejoin="round" stroke-miterlimit="10" d="
			M10.512,11.402V4h-4v7.58c-1,1.648-4,5.359-4,8.035V24h12v-4.385C14.512,16.995,11.512,13.652,10.512,11.402z"/>
		<path fill="none" stroke="#3B3735" stroke-width="2" stroke-linecap="round" stroke-linejoin="round" stroke-miterlimit="10" d="
			M11.512,2.531C11.512,3.342,10.855,4,10.043,4H6.981C6.17,4,5.512,3.342,5.512,2.531V2.469C5.512,1.658,6.17,1,6.981,1h3.062
			c0.811,0,1.469,0.658,1.469,1.469V2.531z"/>
	</g>
	<g>
		<path fill="none" stroke="#3B3735" stroke-width="2" stroke-linecap="round" stroke-linejoin="round" stroke-miterlimit="10" d="
			M25.512,11.402V4h-4v7.58c-1,1.648-4,5.359-4,8.035V24h12v-4.385C29.512,16.995,26.512,13.652,25.512,11.402z"/>
		<path fill="none" stroke="#3B3735" stroke-width="2" stroke-linecap="round" stroke-linejoin="round" stroke-miterlimit="10" d="
			M26.512,2.531C26.512,3.342,25.855,4,25.043,4h-3.062c-0.811,0-1.469-0.658-1.469-1.469V2.469C20.512,1.658,21.17,1,21.981,1
			h3.062c0.811,0,1.469,0.658,1.469,1.469V2.531z"/>
	</g>
	<g>
		<path fill="none" stroke="#3B3735" stroke-width="2" stroke-linecap="round" stroke-linejoin="round" stroke-miterlimit="10" d="
			M40.512,11.402V4h-4v7.58c-1,1.648-4,5.359-4,8.035V24h12v-4.385C44.512,16.995,41.512,13.652,40.512,11.402z"/>
		<path fill="none" stroke="#3B3735" stroke-width="2" stroke-linecap="round" stroke-linejoin="round" stroke-miterlimit="10" d="
			M41.512,2.531C41.512,3.342,40.855,4,40.043,4h-3.062c-0.811,0-1.469-0.658-1.469-1.469V2.469C35.512,1.658,36.17,1,36.981,1
			h3.062c0.811,0,1.469,0.658,1.469,1.469V2.531z"/>
	</g>
	<g>
		
			<rect x="1" y="24.318" fill="none" stroke="#3B3735" stroke-width="2" stroke-linecap="round" stroke-linejoin="round" stroke-miterlimit="10" width="44.422" height="10.27"/>
		
			<rect x="1" y="34.588" fill="none" stroke="#3B3735" stroke-width="2" stroke-linecap="round" stroke-linejoin="round" stroke-miterlimit="10" width="44.422" height="10.396"/>
		
			<line fill="none" stroke="#3B3735" stroke-width="2" stroke-linecap="round" stroke-linejoin="round" stroke-miterlimit="10" x1="1.512" y1="29" x2="4.512" y2="29"/>
		
			<line fill="none" stroke="#3B3735" stroke-width="2" stroke-linecap="round" stroke-linejoin="round" stroke-miterlimit="10" x1="1.512" y1="39" x2="4.512" y2="39"/>
		
			<line fill="none" stroke="#3B3735" stroke-width="2" stroke-linecap="round" stroke-linejoin="round" stroke-miterlimit="10" x1="45.512" y1="29" x2="42.512" y2="29"/>
		
			<line fill="none" stroke="#3B3735" stroke-width="2" stroke-linecap="round" stroke-linejoin="round" stroke-miterlimit="10" x1="45.512" y1="39" x2="42.512" y2="39"/>
	</g>
</g>
</svg>
